X: 3038
T: ATHOLE'S BONNY LASSES
C: J.S. Robertson
Q:"Reel."
R: Reel.
%R:reel
B: James Kerr "Merry Melodies" v.3 p.7 #38
Z: 2016 John Chambers <jc:trillian.mit.edu>
M: C
L: 1/8
K: G
uB |\
G2(DG) B,G,DB, | A,A,EA, AA,EA |\
G2(DG) B,G,DB, | EGFA BGG ::\
d |\
(BG) (B/c/d) g2(dB) |
cedB cAAc |\
[1 (BG) (B/c/d) g2(dB) | cedc BGG :|\
[2 GDEG DGB,G | EGFA BGG |]

%%sep 1 1 500
%%sep 1 1 500

